!!!OTL: SCHOENSTER SCHATZ MEIN ENGEL
!!!ARE: Europa, Mitteleuropa, Deutschland, Hessen, Odenwald
!!!SCT: E0649A
!!!YEM: Copyright 1995, estate of Helmut Schaffrath.
**kern
*ICvox
*Ivox
*M3/4
*k[b-e-a-]
*E-:
{4e-
=1
8.e-
16g
4b-
8ee-
8cc
=2
8b-
8g
8b-}
{8b-
8b-
8b-
=3
8cc
8b-
4a-
4g
=4
2f}
{4b-
=5
8.g
16f
4e-
8f
8cc
=6
4b-
8g}
{8g
8g
8g
=7
4.b-
8a-
4f
=8
2e-}
==
!!!AGN: Liebes - Lied
!!!ONB: ESAC (Essen Associative Code) Database: ERK2
!!!AMT: simple triple
!!!AIN: vox
!!!EED: Helmut Schaffrath
!!!EEV: 1.0
*-
